ERK
CUT[FROEHLICH ZU SEIN IN EHREN]
REG[Europa, Mitteleuropa, Deutschland]
TRD[]
FKT[]
SIG[E1147]
KEY[E1147   04  G 4/4]
MEL[5  5555  6_5
    3  4322  1_0
    5  5555  6_5
    3  4322  1_0
    5  6654  333
    5  6654  333
    5  7b654#  5_0
    6  7b654#  5_0
    3  3234  5_2
    2  3234  5_2
    4  3322  1_0 //]
BEM[]
MEL_SEM[0 0 0 0 2 -2 -3 1 -1 -2 0 -2 7 0 0 0 0 2 -2 -3 1 -1 -2 0 -2 7 2 0 -2 -2 -1 0 0 3 2 0 -2 -2 -1 0 0 3 3 -1 -2 -1 1 2 1 -1 -2 -1 1 -3 0 -2 2 1 2 -5 0 2 -2 2 1 2 -5 3 -1 0 -2 0 -2]
MEL_RAW[5  5555  65
    3  4322  10
    5  5555  65
    3  4322  10
    5  6654  333
    5  6654  333
    5  7b654#  50
    6  7b654#  50
    3  3234  52
    2  3234  52
    4  3322  10]
NO_REP[565
    343210
    565
    343210
    56543
    56543
    57b654#50
    67b654#50
    323452
    2323452
    43210]
RTM[x  xxxx  x_x
    x  xxxx  x_x
    x  xxxx  x_x
    x  xxxx  x_x
    x  xxxx  xxx
    x  xxxx  xxx
    x  xxxx  x_x
    x  xxxx  x_x
    x  xxxx  x_x
    x  xxxx  x_x
    x  xxxx  x_x]
SCL_DEG[12344#567b]
SCL_SEM[2 2 1 1 1 2 1]

